X:1
T:Ornatam in minilibus
T:Ornatam in minilibus
T:Leonhard Heydenhamer
T:Source : Trium vocum cantiones---Nürnberg---J.Petreius---1541. Editor : André Vierendeels (12/04/16).
T:Notes : Original clefs : C1, C3, F3 Editorial accidentals above the staff Square brackets indicate ligatures Note values have been halved 
T:©
T:©
T:©
T:©
C:Leonhard Heydenhamer
Z:©
%%score [ 1 2 3 ]
L:1/8
Q:1/4=92
M:2/2
K:C
V:1 treble nm="Soprano" snm="S"
V:2 treble-8 nm="Tenor" snm="T"
V:3 bass nm="Bass" snm="B"
V:1
 G4 G4 | E3 F GA G2- | GFED E4- | E4 E4 | A3 B cd c2- | cBAG A4- | A4 z2 c2- | c2 BA d2 c2 | A8 | %9
w: Or- na-|||* tam,|or- * * * *|* * * * tam,|_ or-|* * * na- *|tam|
 z4 d3 e | f2 e2 e2 dc | B2 d3 cBA | B4 c3 d | B3 c de d2- | dc c4 B2 | c4 z2 G2 | A2 B2 c2 d2 | %17
w: in _|_ _ _ _ _|* mo- * * *|* ni- *||* * * li-|bus, in|moni- li- * *|
 G2 A3 GFE | D8 | z8 | z4 d4 | f3 e d2 c2 | B2 A2 G4 | A4 z4 | A4 G4 | F2 A3 GFE |"^#" D2 G4 F2 | %27
w: |bus,||fi-|li- * * *||am|Hie- ru-|sa- * * * *||
 G8 | C6 D2 | E4 F4- | F2 G2 A2 B2 | c6 d2- | dc c4 B2 | c6 BA | B8 | A2 c4 BA | G3 F EFGA | %37
w: lem|Do- mi-|nus con|_ cu- pi- *|||||||
 B2 A4 G2 | A8 |] %39
w: |vit.|
V:2
 z8 | z8 | c4 c4 | A3 B cd c2- | cBAG A4- | A4 z2 c2- | c2 BA d2 c2 | A4 f4 | f6 e2 | d2 c2 B4 | %10
w: ||Or- na-||* * * * tam,|_ or-|* * * na- *|tam in|mo- ni-|li- * *|
 A3 B cdef | g3 f d2 g2 | g2 g2 a4 | d2 g4 f2 | e2 dc d4 | c8 | z2 G2 A2 B2 | c3 B c2 d2 | %18
w: |* * bus, in|mo- ni- li-|||bus,|in mo- ni-|li- * * *|
 B3 A BG g2 | e2 cd edef | g6 g2 | a4 a4 | g3 f edcB | A3 B c2 d2 | A2 d4 c2 | d3 e fedc | %26
w: ||fi- li-|am Hie-|ru- * * * * *||* * sa-||
 BA B2 A4 | G8 | A6 B2 | c4 d4 | A3 B c2 d2 | A4 f4 | e3 f d4 | c4 z2 c2 | d4 e4 | f3 e c2 d2 | %36
w: |lem|Do- mi-|nus _|con- * * cu-|pi- *||vit, con-|cu- *|pi- * * *|
 e3 d c2 B2 | G2 A2 B4 | A8 |] %39
w: ||vit.|
V:3
 z8 | z8 | z8 | z8 | F,8 | F,8 | F,8 | F,8 | F,8 | G,8 | A,8 | G,8- | G,4 F,4 | G,8- | G,8 | z8 | %16
w: ||||Or-|na-|tam|in|mo-|ni-||li-||bus.-|_||
 z8 | z8 | G,8 | A,8 | G,8 | F,8 | G,8 | F,4 E,2 F,2- | F,2 E,D, E,4 | D,8- | D,8 | z8 | F,8 | %29
w: ||fi-|li-|am|Hie-|ru-|sa- * *||lem|_||Do-|
 E,4 D,4 | F,8 | F,8 |"^#" G,8 | A,8 | G,8 | F,8 | E,8- | E,8 | A,,8 |] %39
w: mi- *|nus|con-|cu-||pi-||||vit.|

